static/img/menus/ico-relay-lock.svg

<svg width="16" height="16" viewBox="0 0 16 16" fill="none" xmlns="http://www.w3.org/2000/svg">
<path d="M4.00004 7.42062V5.48042C3.99041 4.96826 4.0873 4.45948 4.28491 3.98447C4.48252 3.50945 4.7768 3.07795 5.15017 2.71575C5.52354 2.35354 5.96834 2.06806 6.45799 1.87636C6.94764 1.68466 7.47211 1.59067 8.00004 1.60001C8.52056 1.59057 9.03755 1.6847 9.51912 1.87657C10.0007 2.06845 10.4366 2.354 10.8 2.71563C11.1841 3.07251 11.4888 3.50196 11.6952 3.97748C11.9015 4.45299 12.0053 4.96449 12 5.48042V7.42062" stroke="black" stroke-width="2" stroke-linecap="round" stroke-linejoin="round"/>
<path d="M4 7.42062V5.48042C3.99037 4.96826 4.08725 4.45948 4.28486 3.98447C4.48247 3.50945 4.77675 3.07795 5.15012 2.71575C5.52349 2.35354 5.96829 2.06806 6.45795 1.87636C6.9476 1.68466 7.47206 1.59067 8 1.60001C8.52051 1.59057 9.0375 1.6847 9.51907 1.87657C10.0006 2.06845 10.4366 2.354 10.8 2.71563C11.1841 3.07251 11.4887 3.50196 11.6951 3.97748C11.9015 4.45299 12.0053 4.96449 12 5.48042V7.42062M2 13.6293V8.77876C2 8.13202 2.4 7.80866 3.2 7.80866H12.8C13.6 7.80866 14 8.13202 14 8.77876V13.6293C14 14.276 13.6 14.5994 12.8 14.5994H3.2C2.4 14.5994 2 14.276 2 13.6293Z" stroke="#BBBBBB" stroke-linecap="round" stroke-linejoin="round"/>
<path d="M2 13.5994V8.59937C2 7.9327 2.4 7.59937 3.2 7.59937H12.8C13.6 7.59937 14 7.9327 14 8.59937V13.5994C14 14.266 13.6 14.5994 12.8 14.5994H3.2C2.4 14.5994 2 14.266 2 13.5994Z" fill="#F3C682" stroke="black" stroke-linecap="round" stroke-linejoin="round"/>
</svg>

<svg xmlns="http://www.w3.org/2000/svg" width="16" height="16" fill="none" viewBox="0 0 16 16"><path stroke="#000" stroke-linecap="round" stroke-linejoin="round" stroke-width="2" d="M4 7.42V5.48c-.01-.512.087-1.02.285-1.496.198-.475.492-.906.865-1.268a3.9 3.9 0 0 1 1.308-.84A4 4 0 0 1 8 1.6c.52-.01 1.038.085 1.52.277.48.191.917.477 1.28.839.384.357.689.786.895 1.261.207.476.31.987.305 1.503v1.94"/><path stroke="#bbb" stroke-linecap="round" stroke-linejoin="round" d="M4 7.42V5.48c-.01-.512.087-1.02.285-1.496.197-.475.492-.906.865-1.268a3.9 3.9 0 0 1 1.308-.84A4 4 0 0 1 8 1.6c.52-.01 1.037.085 1.52.277a3.8 3.8 0 0 1 1.28.839c.384.357.689.786.895 1.261.207.476.31.987.305 1.503v1.94M2 13.63V8.778q0-.97 1.2-.97h9.6q1.2 0 1.2.97v4.85q0 .97-1.2.97H3.2q-1.2 0-1.2-.97"/><path fill="#f3c682" stroke="#000" stroke-linecap="round" stroke-linejoin="round" d="M2 13.6v-5q0-1 1.2-1h9.6q1.2 0 1.2 1v5q0 1-1.2 1H3.2q-1.2 0-1.2-1"/></svg>
